public/images/ifos/ditto-bg.svg

<svg width="437" height="112" viewBox="0 0 437 112" fill="none" xmlns="http://www.w3.org/2000/svg">
<g clip-path="url(#clip0)">
<rect width="437" height="112" fill="url(#paint0_linear)"/>
<path d="M180.227 36.11C182.095 36.11 183.61 34.5954 183.61 32.7271C183.61 30.8587 182.095 29.3441 180.227 29.3441C178.358 29.3441 176.844 30.8587 176.844 32.7271C176.844 34.5954 178.358 36.11 180.227 36.11Z" fill="black"/>
<path d="M251.211 35.5506C253.08 35.5506 254.594 34.036 254.594 32.1676C254.594 30.2993 253.08 28.7847 251.211 28.7847C249.343 28.7847 247.828 30.2993 247.828 32.1676C247.828 34.036 249.343 35.5506 251.211 35.5506Z" fill="black"/>
<path fill-rule="evenodd" clip-rule="evenodd" d="M140.489 55.9467C140.489 55.9467 132.767 64.1401 149.479 72.6281C149.479 72.6281 179.733 87.207 220.209 85.8848C267.549 84.3381 289.595 69.5774 294.408 65.0056C300.358 59.3531 298.187 49.6095 281.314 52.8168C261.748 56.5359 250.183 59.4634 220.768 60.4579C196.532 61.2769 169.261 59.6605 157.574 56.7201C142.279 52.872 140.489 55.9467 140.489 55.9467V55.9467Z" fill="#B32C43"/>
<path fill-rule="evenodd" clip-rule="evenodd" d="M147.245 73.8242C147.245 73.8242 173.246 67.4354 215.326 67.104C257.406 66.7726 286.317 71.5229 286.317 71.5229C286.317 71.5229 257.07 86.9436 217.359 86.9153C168.029 86.8802 147.245 73.8242 147.245 73.8242Z" fill="#F06C75"/>
<path fill-rule="evenodd" clip-rule="evenodd" d="M139.102 54.8382C139.268 54.5543 139.872 53.7755 141.694 53.3017C143.775 52.76 148.31 52.4851 157.94 54.9079C169.546 57.8279 196.632 59.413 220.703 58.5994C250.003 57.6089 261.522 54.6895 281.011 50.9848C290.397 49.2007 295.63 51.4102 297.753 54.4602C300.16 57.9189 299.257 62.845 295.504 66.4109C290.62 71.0503 268.283 86.1733 220.246 87.7428C179.349 89.0788 148.784 74.3299 148.754 74.3149C139.446 69.5877 137.188 64.6716 137.012 61.2081C136.844 57.9141 138.518 55.5545 139.102 54.8382V54.8382ZM140.475 55.9465C140.475 55.9465 132.753 64.1399 149.466 72.6279C149.466 72.6279 179.719 87.2068 220.195 85.8846C267.535 84.3379 289.582 69.5772 294.395 65.0054C300.345 59.3529 298.174 49.6093 281.301 52.8165C261.734 56.5357 250.17 59.4632 220.755 60.4577C196.519 61.2767 169.248 59.6603 157.561 56.7199C142.266 52.8718 140.475 55.9465 140.475 55.9465V55.9465Z" fill="black"/>
<path fill-rule="evenodd" clip-rule="evenodd" d="M265.822 55.6979C265.822 55.6979 281.101 52.2999 288.674 55.4248C299.37 59.8377 289.902 68.7458 289.902 68.7458C289.902 68.7458 297.387 64.5029 298.16 59.6517C298.16 59.6517 299.754 50.9951 285.673 51.5527C277.927 51.8598 265.822 55.6979 265.822 55.6979V55.6979Z" fill="black"/>
</g>
<defs>
<linearGradient id="paint0_linear" x1="218.5" y1="0" x2="218.5" y2="112" gradientUnits="userSpaceOnUse">
<stop stop-color="#ED7BC0"/>
<stop offset="1" stop-color="#CF509E"/>
</linearGradient>
<clipPath id="clip0">
<rect width="437" height="112" fill="white"/>
</clipPath>
</defs>
</svg>

<svg xmlns="http://www.w3.org/2000/svg" width="437" height="112" fill="none"  xmlns:v="https://vecta.io/nano"><g clip-path="url(#B)"><path fill="url(#A)" d="M0 0h437v112H0z"/><g fill="#000"><path d="M180.227 36.11c1.868 0 3.383-1.515 3.383-3.383s-1.515-3.383-3.383-3.383-3.383 1.515-3.383 3.383 1.514 3.383 3.383 3.383zm70.984-.559c1.869 0 3.383-1.515 3.383-3.383s-1.514-3.383-3.383-3.383-3.383 1.515-3.383 3.383 1.515 3.383 3.383 3.383z"/></g><g fill-rule="evenodd"><path d="M140.489 55.947s-7.722 8.193 8.99 16.681c0 0 30.254 14.579 70.73 13.257 47.34-1.547 69.386-16.307 74.199-20.879 5.95-5.653 3.779-15.396-13.094-12.189-19.566 3.719-31.131 6.647-60.546 7.641-24.236.819-51.507-.797-63.194-3.738-15.295-3.848-17.085-.773-17.085-.773h0z" fill="#b32c43"/><path d="M147.245 73.824s26.001-6.389 68.081-6.72 70.991 4.419 70.991 4.419-29.247 15.421-68.958 15.392c-49.33-.035-70.114-13.091-70.114-13.091z" fill="#f06c75"/><g fill="#000"><path d="M139.102 54.838c.166-.284.77-1.063 2.592-1.537 2.081-.542 6.616-.817 16.246 1.606 11.606 2.92 38.692 4.505 62.763 3.692 29.3-.991 40.819-3.91 60.308-7.615 9.386-1.784 14.619.425 16.742 3.475 2.407 3.459 1.504 8.385-2.249 11.951-4.884 4.639-27.221 19.762-75.258 21.332-40.897 1.336-71.462-13.413-71.492-13.428-9.308-4.727-11.566-9.643-11.742-13.107-.168-3.294 1.506-5.654 2.09-6.37h0zm1.373 1.108s-7.722 8.193 8.991 16.681c0 0 30.253 14.579 70.729 13.257 47.34-1.547 69.387-16.307 74.2-20.879 5.95-5.652 3.779-15.396-13.094-12.189-19.567 3.719-31.131 6.647-60.546 7.641-24.236.819-51.507-.797-63.194-3.738-15.295-3.848-17.086-.773-17.086-.773h0z"/><path d="M265.822 55.698s15.279-3.398 22.852-.273c10.696 4.413 1.228 13.321 1.228 13.321s7.485-4.243 8.258-9.094c0 0 1.594-8.657-12.487-8.099-7.746.307-19.851 4.145-19.851 4.145h0z"/></g></g></g><defs><linearGradient id="A" x1="218.5" y1="0" x2="218.5" y2="112" gradientUnits="userSpaceOnUse"><stop stop-color="#ed7bc0"/><stop offset="1" stop-color="#cf509e"/></linearGradient><clipPath id="B"><path fill="#fff" d="M0 0h437v112H0z"/></clipPath></defs></svg>
